packages/icons/general/ITO.svg

<svg width="24" height="24" viewBox="0 0 24 24" xmlns="http://www.w3.org/2000/svg">
<g>
        <path
            fill-rule="evenodd"
            clip-rule="evenodd"
            d="M16.4238 6.13342C16.4238 6.56199 16.2324 6.97013 15.8866 7.34099V9.06512C18.7797 9.49384 20.9995 11.9877 20.9995 15C20.9995 18.3137 18.3132 21 14.9995 21C14.2629 21 13.5572 20.8673 12.9052 20.6244C11.9455 20.8639 10.8445 21 9.67383 21C6.55843 21 3.93599 20.0359 3.15832 18.7251H3.00256V18.389C2.95072 18.2349 2.92383 18.0772 2.92383 17.9165C2.92383 17.7559 2.95072 17.5981 3.00256 17.4441V6.60587C2.95072 6.45185 2.92383 6.29407 2.92383 6.13342C2.92383 4.43045 5.94591 3.04993 9.67383 3.04993C13.4018 3.04993 16.4238 4.43045 16.4238 6.13342Z"
            fill="#FEDD18"
        />
        <path
            d="M9.38496 7.53516C8.9584 7.53516 6.83496 7.49531 6.83496 6.68438C6.83496 6.52734 6.96152 6.40078 7.11855 6.40078C7.25684 6.40078 7.37402 6.50156 7.39746 6.63281C7.5334 6.75469 8.23184 6.96797 9.38496 6.96797C10.3881 6.96797 11.0467 6.80625 11.2928 6.68438C11.049 6.5625 10.3904 6.40078 9.38496 6.40078C8.9584 6.40078 6.83496 6.36094 6.83496 5.55C6.83496 4.73906 8.96074 4.69922 9.38496 4.69922C9.80918 4.69922 11.935 4.73906 11.935 5.55C11.935 5.70703 11.8084 5.83359 11.6514 5.83359C11.5131 5.83359 11.3959 5.73281 11.3725 5.60156C11.2365 5.47969 10.5381 5.26641 9.38496 5.26641C8.38184 5.26641 7.72324 5.42813 7.47715 5.55C7.7209 5.67188 8.37949 5.83359 9.38496 5.83359C9.81152 5.83359 11.935 5.87344 11.935 6.68438C11.935 7.49531 9.80918 7.53516 9.38496 7.53516Z"
            fill="#FFF4B3"
        />
        <path
            d="M15.1834 21.6352C11.5107 21.6352 8.52246 18.6469 8.52246 14.9742C8.52246 11.3016 11.5107 8.31329 15.1834 8.31329C18.856 8.31329 21.8443 11.3039 21.8443 14.9766C21.8443 18.6492 18.856 21.6352 15.1834 21.6352ZM15.1834 9.16642C11.9795 9.16642 9.37324 11.7727 9.37324 14.9766C9.37324 18.1805 11.9795 20.7867 15.1834 20.7867C18.3873 20.7867 20.9935 18.1805 20.9935 14.9766C20.9935 11.7727 18.3873 9.16642 15.1834 9.16642Z"
            fill="#FFB600"
        />
        <path
            d="M9.10059 7.89141C9.10059 8.04844 9.22715 8.175 9.38418 8.175C9.53887 8.175 9.66543 8.04609 9.66777 7.89141V4.49063C9.66777 4.33359 9.54121 4.20703 9.38418 4.20703C9.22715 4.20703 9.10059 4.33359 9.10059 4.49063V7.89141Z"
            fill="#FFF4B3"
        />
        <path
            d="M11.2734 20.3626C10.6734 20.454 10.0383 20.5008 9.38204 20.5008C5.925 20.5008 3.00469 19.1391 3.00469 17.5243C3.00469 17.4727 2.99297 17.4235 2.97656 17.3766C2.99297 17.3297 3.00469 17.2805 3.00469 17.229V16.5188C4.21172 17.7188 6.58828 18.518 9.38204 18.518C9.43594 18.518 9.48985 18.5157 9.54376 18.5157C9.37266 18.2438 9.22032 17.9602 9.08907 17.6649C5.76094 17.5899 3.00234 16.261 3.00234 14.693V13.6876C4.0875 14.7657 6.12188 15.5204 8.55469 15.661C8.53126 15.436 8.51954 15.2086 8.51954 14.979C8.51954 14.9227 8.52188 14.8641 8.52422 14.8079C5.45391 14.6063 3.00234 13.3383 3.00234 11.8618V10.8516C4.13438 11.9766 6.3 12.7501 8.8711 12.8415C8.96954 12.5508 9.08672 12.2696 9.22266 11.9977C5.8336 11.9579 3 10.6126 3 9.02349V8.01802C4.20703 9.21802 6.5836 10.0172 9.37735 10.0172C9.87423 10.0172 10.357 9.99146 10.8234 9.94224C11.993 8.92974 13.5141 8.31568 15.1758 8.31568C15.2531 8.31568 15.3305 8.31802 15.4078 8.32271C15.5297 8.22427 15.6469 8.12349 15.7524 8.01802V8.34146C16.0406 8.36724 16.3242 8.40943 16.6031 8.47037V6.1899C16.6031 4.04537 13.4297 2.3649 9.37501 2.3649C5.32032 2.3649 2.15625 4.04537 2.15625 6.1899V17.2313C2.15625 17.2829 2.16797 17.3321 2.18437 17.379C2.16797 17.4258 2.15625 17.4751 2.15625 17.5266C2.15625 19.6711 5.32969 21.3516 9.38438 21.3516C10.4625 21.3516 11.4774 21.2321 12.3867 21.0165C11.993 20.836 11.6203 20.6157 11.2734 20.3626ZM9.38438 3.21334C12.8414 3.21334 15.7617 4.57506 15.7617 6.1899C15.7617 7.80474 12.8414 9.16646 9.38438 9.16646C5.92735 9.16646 3.00703 7.80474 3.00703 6.1899C3.00703 4.57506 5.92735 3.21334 9.38438 3.21334Z"
            fill="#FFB600"
        />
        <path
            d="M15.183 17.0297C14.2291 17.0297 13.4814 16.4906 13.4814 15.8016C13.4814 15.6445 13.608 15.518 13.765 15.518C13.9221 15.518 14.0486 15.6445 14.0486 15.8016C14.0486 16.1531 14.5783 16.4625 15.183 16.4625C15.7877 16.4625 16.3174 16.1531 16.3174 15.8016C16.3174 15.45 15.7877 15.1406 15.183 15.1406C14.2291 15.1406 13.4814 14.6016 13.4814 13.9125C13.4814 13.2234 14.2291 12.6844 15.183 12.6844C16.1369 12.6844 16.8846 13.2234 16.8846 13.9125C16.8846 14.0695 16.758 14.1961 16.601 14.1961C16.4439 14.1961 16.3174 14.0695 16.3174 13.9125C16.3174 13.5609 15.7877 13.2516 15.183 13.2516C14.5783 13.2516 14.0486 13.5609 14.0486 13.9125C14.0486 14.2641 14.5783 14.5734 15.183 14.5734C16.1369 14.5734 16.8846 15.1125 16.8846 15.8016C16.8846 16.4906 16.1369 17.0297 15.183 17.0297Z"
            fill="#FFF4B3"
        />
        <path
            d="M15.183 18.0938C15.026 18.0938 14.8994 17.9672 14.8994 17.8102V12.1407C14.8994 11.9836 15.026 11.8571 15.183 11.8571C15.34 11.8571 15.4666 11.9836 15.4666 12.1407V17.8079C15.4666 17.9672 15.34 18.0938 15.183 18.0938Z"
            fill="#FFF4B3"
        />
    </g>
</svg>

<svg xmlns="http://www.w3.org/2000/svg" viewBox="0 0 24 24">
    <path fill="#FEDD18" fill-rule="evenodd" d="M16.424 6.133c0 .429-.192.837-.537 1.208v1.724a6.001 6.001 0 1 1-2.982 11.56A13.5 13.5 0 0 1 9.674 21c-3.116 0-5.738-.964-6.516-2.275h-.155v-.336a1.474 1.474 0 0 1 0-.945V6.606a1.474 1.474 0 0 1-.08-.473c0-1.703 3.023-3.083 6.75-3.083 3.729 0 6.75 1.38 6.75 3.083Z" clip-rule="evenodd"/>
    <path fill="#FFF4B3" d="M9.385 7.535c-.427 0-2.55-.04-2.55-.85a.283.283 0 0 1 .562-.052c.136.122.835.335 1.988.335 1.003 0 1.662-.162 1.908-.284-.244-.122-.903-.283-1.908-.283-.427 0-2.55-.04-2.55-.851 0-.81 2.126-.85 2.55-.85.424 0 2.55.04 2.55.85a.283.283 0 0 1-.563.052c-.136-.122-.834-.336-1.987-.336-1.003 0-1.662.162-1.908.284.244.122.902.284 1.908.284.427 0 2.55.04 2.55.85 0 .811-2.126.851-2.55.851Z"/>
    <path fill="#FFB600" d="M15.183 21.635a6.669 6.669 0 0 1-6.66-6.66 6.669 6.669 0 0 1 6.66-6.662c3.673 0 6.661 2.99 6.661 6.664a6.666 6.666 0 0 1-6.66 6.658Zm0-12.469a5.817 5.817 0 0 0-5.81 5.81 5.816 5.816 0 0 0 5.81 5.81 5.816 5.816 0 0 0 5.81-5.81 5.816 5.816 0 0 0-5.81-5.81Z"/>
    <path fill="#FFF4B3" d="M9.1 7.891a.283.283 0 1 0 .568 0v-3.4a.283.283 0 1 0-.567 0v3.4Z"/>
    <path fill="#FFB600" d="M11.273 20.363c-.6.091-1.235.138-1.891.138-3.457 0-6.377-1.362-6.377-2.977 0-.051-.012-.1-.028-.147a.446.446 0 0 0 .028-.148v-.71c1.207 1.2 3.583 1.999 6.377 1.999l.162-.002a6.727 6.727 0 0 1-.455-.851c-3.328-.075-6.087-1.404-6.087-2.972v-1.005c1.086 1.078 3.12 1.832 5.553 1.973a6.581 6.581 0 0 1-.03-.853c-3.071-.202-5.523-1.47-5.523-2.946v-1.01c1.132 1.125 3.298 1.898 5.87 1.99a6.72 6.72 0 0 1 .35-.844C5.835 11.958 3 10.613 3 9.023V8.018c1.207 1.2 3.584 2 6.377 2 .497 0 .98-.027 1.446-.076a6.63 6.63 0 0 1 4.353-1.626c.077 0 .155.002.232.007.122-.099.239-.2.344-.305v.323c.289.026.572.068.851.13V6.19c0-2.145-3.173-3.825-7.228-3.825S2.156 4.045 2.156 6.19v11.04c0 .052.012.101.028.148a.446.446 0 0 0-.028.148c0 2.144 3.174 3.825 7.228 3.825 1.079 0 2.093-.12 3.003-.335a6.493 6.493 0 0 1-1.114-.654ZM9.384 3.213c3.457 0 6.378 1.362 6.378 2.977 0 1.615-2.92 2.976-6.378 2.976-3.457 0-6.377-1.361-6.377-2.976s2.92-2.977 6.377-2.977Z"/>
    <path fill="#FFF4B3" d="M15.183 17.03c-.954 0-1.702-.54-1.702-1.228a.283.283 0 1 1 .568 0c0 .351.53.66 1.134.66.605 0 1.134-.309 1.134-.66 0-.352-.53-.661-1.134-.661-.954 0-1.702-.54-1.702-1.229 0-.689.748-1.228 1.702-1.228s1.702.54 1.702 1.229a.283.283 0 1 1-.568 0c0-.352-.53-.661-1.134-.661-.605 0-1.134.309-1.134.66 0 .352.53.661 1.134.661.954 0 1.702.54 1.702 1.229 0 .689-.748 1.228-1.702 1.228Z"/>
    <path fill="#FFF4B3" d="M15.183 18.094a.283.283 0 0 1-.284-.284v-5.67a.283.283 0 1 1 .568 0v5.668c0 .16-.127.286-.284.286Z"/>
</svg>
